!!!COM: Palestrina, Giovanni Perluigi da
!!!OPR: Missa Qual e il piu grande'amore
!!!OTL: Gloria
**kern	**kern	**kern	**kern	**kern
*Ibass	*Itenor	*Icalto	*Icant	*Icant
!Bassus	!Tenor	!Altus	!Cantus 2	!Cantus 1
*clefF4	*clefGv2	*clefG2	*clefG2	*clefG2
*k[b-]	*k[b-]	*k[b-]	*k[b-]	*k[b-]
*F:ion	*F:ion	*F:ion	*F:ion	*F:ion
*M4/2	*M4/2	*M4/2	*M4/2	*M4/2
=1	=1	=1	=1	=1
0r	0r	0r	2.f	1r
.	.	.	4f	.
.	.	.	2a	2r
.	.	.	2a	[2f
=2	=2	=2	=2	=2
0r	1r	0r	2.cc	4f]
.	.	.	.	4f
.	.	.	.	2a
.	.	.	4b-	.
.	2.F	.	4a	2a
.	.	.	4g	.
.	.	.	[2f	[2cc
.	4F	.	.	.
=3	=3	=3	=3	=3
0r	2A	0r	2f]	4cc]
.	.	.	.	4b-
.	2A	.	2e	4a
.	.	.	.	4g
.	2B-	.	2d	2f
.	2c	.	4c	2e
.	.	.	[4cc	.
=4	=4	=4	=4	=4
1r	2F	0r	4cc]	2d
.	.	.	8b	.
.	.	.	8a	.
.	2G	.	2b	2d
2.F	2.A	.	[1cc	2c
.	.	.	.	[2f
4F	4B-	.	.	.
=5	=5	=5	=5	=5
2A	1c	2.F	0cc]	4f]
.	.	.	.	4f
2A	.	.	.	2a
.	.	4F	.	.
2.c	2r	2A	.	2a
.	2F	2A	.	[2cc
4B-	.	.	.	.
=6	=6	=6	=6	=6
4A	2F	2.c	0r	4cc]
4G	.	.	.	4b-
4F	2A	.	.	4a
4E	.	8d	.	4g
.	.	8e	.	.
2D	2A	2f	.	4a
.	.	.	.	4f
2C	[2c	2e	.	[2g
=7	=7	=7	=7	=7
1G	4c]	1d	2r	4g]
.	8B	.	.	4f
.	8A	.	.	.
.	2B	.	2g	2d
1C	2c	2c	2g	1e
.	2c	2e	2g	.
=8	=8	=8	=8	=8
0r	2c	2e	1a	2r
.	2c	2e	.	2a
.	[1d	[1f	1r	2a
.	.	.	.	2a
=9	=9	=9	=9	=9
0r	2d]	2f]	1r	2.b-
.	2B-	2d	.	.
.	.	.	.	4a
.	2c	2e	2r	2g
.	[2c	[2e	[2g	2cc
=10	=10	=10	=10	=10
0r	2c]	2e]	2g]	2cc
.	2B-	2d	2g	2.dd
.	1A	2e	2a	.
.	.	.	.	4cc
.	.	4d	2f	[2cc
.	.	4c	.	.
=11	=11	=11	=11	=11
1r	1G	1d	1g	4cc]
.	.	.	.	8b
.	.	.	.	8a
.	.	.	.	2b
2r	2.A	1c	2e	2.cc
[2A	.	.	[2cc	.
.	4G	.	.	4b-
=12	=12	=12	=12	=12
2A]	0F	2r	2cc]	1a
2A	.	1f	2cc	.
2A	.	.	2cc	1r
2A	.	2f	2cc	.
=13	=13	=13	=13	=13
1.B-	0r	2f	1.dd	0r
.	.	2f	.	.
.	.	1g	.	.
2G	.	.	2b-	.
=14	=14	=14	=14	=14
4A	0r	2e	4cc	1a
4G	.	.	4b-	.
4F	.	1f	4a	.
4E	.	.	4g	.
2D	.	.	2f	2a
2C	.	2e	2g	2cc
=15	=15	=15	=15	=15
2G	0r	2d	2g	2b-
2A	.	2c	2f	2a
1G	.	1d	[1g	4b-
.	.	.	.	4a
.	.	.	.	4g
.	.	.	.	4f
=16	=16	=16	=16	=16
1C	2r	1c	1g]	1e
.	2.c	.	.	.
[1F	.	2r	4f	[1a
.	4B-	.	4g	.
.	4A	[2f	4a	.
.	4G	.	4b-	.
=17	=17	=17	=17	=17
2F]	2F	2f]	2cc	2a]
2C	2G	2e	2cc	2g
1C	1G	1e	1cc	1g
=18	=18	=18	=18	=18
1.BB-	2r	1f	1.dd	1.b-
.	2d	.	.	.
.	2d	2f	.	.
2BB-	[2d	2f	2dd	2b-
=19	=19	=19	=19	=19
2D	4d]	4f	1dd	2a
.	4c	4e	.	.
2G	2B-	4d	.	1g
.	.	4c	.	.
1D	1A	1d	1dd	.
.	.	.	.	2f#
=20	=20	=20	=20	=20
2r	1G	0d	2b-	0g
1G	.	.	1b-	.
.	2r	.	.	.
2G	[2d	.	2b-	.
=21	=21	=21	=21	=21
2.F	2d]	0r	2.a	0r
.	2d	.	.	.
4D	.	.	4f	.
2E	2.c	.	2g	.
2F	.	.	2a	.
.	4A	.	.	.
=22	=22	=22	=22	=22
2G	2B-	2r	2.g	1r
2E	2c	1g	.	.
.	.	.	4a	.
1D	1d	.	2b-	2r
.	.	2f	2a	[2dd
=23	=23	=23	=23	=23
0r	1B-	2.f	4d	2dd]
.	.	.	4e	.
.	.	.	4f	2dd
.	.	4d	4g	.
.	1A	2e	1a	2.cc
.	.	2f	.	.
.	.	.	.	4a
=24	=24	=24	=24	=24
0r	0r	2g	2r	2b-
.	.	2e	2g	2cc
.	.	[1d	2f#	2dd
.	.	.	[2g	2b-
=25	=25	=25	=25	=25
1r	2r	1d]	2g]	1a
.	2.d	.	4f#	.
.	.	.	4e	.
2r	.	1r	2f#	2r
.	4d	.	.	.
[2G	2d	.	2g	[2b-
=26	=26	=26	=26	=26
4G]	2B-	2r	1dd	4b-]
4G	.	.	.	4b-
2G	2G	2.d	.	2b-
2F	4A	.	1r	2a
.	8G	4d	.	.
.	8A	.	.	.
2D	[2B-	2d	.	2f
=27	=27	=27	=27	=27
2E	2B-]	2c	1r	2g
2F	2A	2c	.	2a
[1BB-	2.d	2B-	2r	[1b-
.	.	2f	[2dd	.
.	4c	.	.	.
=28	=28	=28	=28	=28
1BB-]	1B-	0f	4dd]	1b-]
.	.	.	4dd	.
.	.	.	2dd	.
1F	2c	.	2cc	1a
.	[2d	.	2a	.
=29	=29	=29	=29	=29
0r	2d]	[0f	2b-	1r
.	2A	.	2cc	.
.	1B-	.	2.dd	2r
.	.	.	.	[2b-
.	.	.	8cc	.
.	.	.	8b-	.
=30	=30	=30	=30	=30
1r	1F	0f]	1cc	2b-]
.	.	.	.	2a
[1B-	2r	.	1dd	1b-
.	[2d	.	.	.
=31	=31	=31	=31	=31
2B-]	2d]	0r	0r	0f
2A	2c	.	.	.
1B-	1d	.	.	.
=32	=32	=32	=32	=32
2A	2c	2r	0r	1r
2G	2B-	1d	.	.
2F	2A	.	.	2r
2E	2G	2c	.	[2g
=33	=33	=33	=33	=33
1D	1A	1d	2r	2g]
.	.	.	1a	2f
1r	2r	2c	.	2e
.	[2d	2B-	2g	2d
=34	=34	=34	=34	=34
0r	2d]	1A	1a	1e
.	2c	.	.	.
.	1d	1B-	2g	4d
.	.	.	.	4e
.	.	.	2f	4f
.	.	.	.	4g
=35	=35	=35	=35	=35
0r	2c	2c	2e	4a
.	.	.	.	4g
.	2B-	2d	2d	4g
.	.	.	.	8f
.	.	.	.	8g
.	2A	4c	4e	2a
.	.	4A	4f	.
.	2G	[2d	4g	2b-
.	.	.	4f	.
=36	=36	=36	=36	=36
1r	1A	2d]	4e	1a
.	.	.	4d	.
.	.	2c#	2e	.
2r	2r	1d	[1f#	2r
[2D	[2d	.	.	[2a
=37	=37	=37	=37	=37
4D]	4d]	2r	1f#]	4a]
4D	4d	.	.	4a
2D	2d	2.d	.	2a
1G	1B-	.	1r	1b-
.	.	4d	.	.
.	.	2d	.	.
=38	=38	=38	=38	=38
1F	0c	2f	2r	1a
.	.	2f	2.a	.
2.A	.	2e	.	1r
.	.	.	4a	.
.	.	2c	2a	.
4A	.	.	.	.
=39	=39	=39	=39	=39
2G	2.B-	2d	1b-	1r
2G	.	2e	.	.
.	4B-	.	.	.
1F	2c	2f	1a	2.cc
.	2F	2f	.	.
.	.	.	.	4cc
=40	=40	=40	=40	=40
0r	1G	2d	2.g	2b-
.	.	2.e	.	2b-
.	.	.	4g	.
.	1D	.	2f	[1a
.	.	4d	.	.
.	.	[2d	2f	.
=41	=41	=41	=41	=41
1r	0A	2d]	1e	1a]
.	.	2c#	.	.
[1D	.	1d	2.f#	[1dd
.	.	.	4g	.
=42	=42	=42	=42	=42
1D]	0d	1f#	1a	1dd]
[1G	.	2.g	2.b-	1dd
.	.	8f	4cc	.
.	.	8e	.	.
=43	=43	=43	=43	=43
1G]	1B	1d	1dd	[0g
1C	1c	1e	1cc	.
=44	=44	=44	=44	=44
0G	4c	0d	0dd	0g]
.	8B	.	.	.
.	8A	.	.	.
.	1.B	.	.	.
=45	=45	=45	=45	=45
2r	1c	2r	2g	0e
2.A	.	2.c	2.cc	.
.	1r	.	.	.
4A	.	4c	4cc	.
2A	.	2c	2cc	.
=46	=46	=46	=46	=46
1G	1r	2d	1b-	1r
.	.	2e	.	.
1F	2r	2.f	[1a	2r
.	[2A	.	.	[2cc
.	.	8e	.	.
.	.	8d	.	.
=47	=47	=47	=47	=47
0r	4A]	2e	1a]	4cc]
.	4A	.	.	4cc
.	2A	2f	.	2cc
.	1G	4g	[1dd	1b-
.	.	4f	.	.
.	.	4d	.	.
.	.	4e	.	.
=48	=48	=48	=48	=48
0r	1F	1f	2dd]	1a
.	.	.	2cc	.
.	[1B-	[1f	2.b-	[1dd
.	.	.	4a	.
=49	=49	=49	=49	=49
0r	2B-]	1f]	4f	2dd]
.	.	.	4g	.
.	2A	.	2a	2cc
.	4B-	1r	4g	2.b-
.	4c	.	4f	.
.	2d	.	[2f	.
.	.	.	.	4f
=50	=50	=50	=50	=50
1r	1c	1r	2f]	1g
.	.	.	2e	.
2r	2r	2r	1f	[1a
[2D	[2A	[2f	.	.
=51	=51	=51	=51	=51
4D]	4A]	4f]	0r	2a]
4D	4A	4f	.	.
2D	2F	2f	.	2b-
1C	2G	1e	.	1cc
.	2A	.	.	.
=52	=52	=52	=52	=52
0BB-	0B-	2.d	2r	2r
.	.	.	2.b-	2.dd
.	.	4e	.	.
.	.	[1f	.	.
.	.	.	4b-	4dd
.	.	.	2b-	2dd
=53	=53	=53	=53	=53
1.F	2r	1f]	2.a	2.cc
.	1c	.	.	.
.	.	.	4b-	4b-
.	.	2r	[1cc	2a
2E	2c	2g	.	2g
=54	=54	=54	=54	=54
2.F	0c	1f	1cc]	1a
4G	.	.	.	.
1A	.	1e	1a	[1cc
=55	=55	=55	=55	=55
0G	0d	2.g	1dd	2cc]
.	.	.	.	4b
.	.	8f	.	4a
.	.	8e	.	.
.	.	1d	1g	1b
=56	=56	=56	=56	=56
0C	0c	0e	0g	0cc
=57	=57	=57	=57	=57
0r	1c	1e	1cc	1g
.	1G	1d	1b	1g
=58	=58	=58	=58	=58
0r	2G	2d	2b	2g
.	2A	2c	2cc	2f
.	2G	2d	2b-	2g
.	2F	2f	2a	2cc
=59	=59	=59	=59	=59
0r	4c	2e	2g	0cc
.	4B-	.	.	.
.	4A	2.c	1a	.
.	4G	.	.	.
.	2F	.	.	.
.	.	4d	.	.
.	4E	[2e	[2g	.
.	8F	.	.	.
.	8G	.	.	.
=60	=60	=60	=60	=60
0r	1A	2e]	2g]	2.cc
.	.	4d	2f#	.
.	.	4c	.	8b-
.	.	.	.	8a
.	1G	2d	1g	4b-
.	.	.	.	4a
.	.	[2g	.	4g
.	.	.	.	4f
=61	=61	=61	=61	=61
0r	2.c	4g]	2r	4e
.	.	4f	.	4f
.	.	4e	2.cc	2g
.	4B-	4d	.	.
.	4A	1c	.	1a
.	4G	.	4b-	.
.	[2F	.	4a	.
.	.	.	4g	.
=62	=62	=62	=62	=62
0r	2F]	2c	2a	0r
.	2F	2d	2a	.
.	2G	2e	2g	.
.	2A	[2f	2f	.
=63	=63	=63	=63	=63
0r	2B-	2f]	1g	2r
.	2c	2e	.	2.cc
.	1F	2f	2a	.
.	.	.	.	4b-
.	.	[2f	4cc	4a
.	.	.	4b-	4g
=64	=64	=64	=64	=64
0r	2F	4f]	4a	2f
.	.	4e	4g	.
.	1B-	4d	4f	2f
.	.	4c	4e	.
.	.	2B-	2d	2g
.	2A	2F	2c	2a
=65	=65	=65	=65	=65
0r	1G	2B-	2d	1b-
.	.	2B-	2e	.
.	1F	2d	1f	[1a
.	.	2c	.	.
=66	=66	=66	=66	=66
1F	1c	2r	2f	1a]
.	.	2f	2a	.
1C	1c	1e	1g	1r
=67	=67	=67	=67	=67
2C	2c	2e	2g	0r
2F	2A	2d	2f	.
2C	2c	2e	2g	.
2BB-	2d	2f	2b-	.
=68	=68	=68	=68	=68
4F	2c	2.f	2a	0r
4E	.	.	.	.
4D	1d	.	2.f	.
4C	.	4e	.	.
2BB-	.	2d	.	.
.	.	.	4g	.
4AA	[2c	2e	[2a	.
8BB-	.	.	.	.
8C	.	.	.	.
=69	=69	=69	=69	=69
1D	2c]	1.f	2a]	0r
.	2B-	.	4g	.
.	.	.	4f	.
1C	1c	.	2a	.
.	.	2e	2g	.
=70	=70	=70	=70	=70
1.F	2r	2r	2r	1.cc
.	1A	1f	1a	.
2F	2A	2f	2a	2cc
=71	=71	=71	=71	=71
1F	1A	1f	1a	1cc
[1BB-	1B-	[1f	[1dd	[1b-
=72	=72	=72	=72	=72
2BB-]	1F	2f]	2dd]	2b-]
2AA	.	2f	2cc	2cc
2BB-	2F	2f	2b-	2dd
2F	2A	2f	2a	2cc
=73	=73	=73	=73	=73
1BB-	4B-	1f	1dd	1b-
.	4A	.	.	.
.	4F	.	.	.
.	4G	.	.	.
1F	2.A	2.f	2cc	1a
.	.	.	[2dd	.
.	8G	4e-	.	.
.	8A	.	.	.
=74	=74	=74	=74	=74
0G	2B	2d	2dd]	0g
.	2c	2e-	1cc	.
.	2d	1d	.	.
.	[2G	.	2b	.
=75	=75	=75	=75	=75
1C	2G]	2c	0cc	2e
.	2c	2g	.	2e
1r	2F	2f	.	2a
.	2c	2e	.	2g
=76	=76	=76	=76	=76
0r	2c	2e	0r	2g
.	2.F	2.a	.	2.f
.	4F	4a	.	4f
.	2c	2g	.	2e
=77	=77	=77	=77	=77
2r	1F	2.f	2r	1a
2F	.	.	2cc	.
.	.	4e	.	.
2BB-	2.F	2d	2b-	[1f
2F	.	4c	2a	.
.	4G	4B-	.	.
=78	=78	=78	=78	=78
2F	4A	2A	2a	0f]
.	8G	.	.	.
.	8A	.	.	.
2.BB-	1B-	2F	2.dd	.
.	.	2r	.	.
4BB-	.	.	4dd	.
2F	2A	[2f	2cc	.
=79	=79	=79	=79	=79
1G	2r	2f]	2b-	0r
.	1B-	2e	2b-	.
1F	.	2f	2dd	.
.	2A	2a	2cc	.
=80	=80	=80	=80	=80
0r	2B-	4g	2dd	2r
.	.	4f	.	.
.	2d	1f	2a	1a
.	1c	.	1cc	.
.	.	2e	.	2g
=81	=81	=81	=81	=81
2r	2F	1f	2cc	2.a
1F	1c	.	1a	.
.	.	.	.	4b-
.	.	1r	.	[1cc
2E	2c	.	2g	.
=82	=82	=82	=82	=82
2F	2c	0r	2a	2cc]
2A	2c	.	1cc	2f
[1G	[1d	.	.	1g
.	.	.	4b-	.
.	.	.	4a	.
=83	=83	=83	=83	=83
1G]	1d]	2r	2b-	1g
.	.	1g	2b-	.
1D	1d	.	1a	2r
.	.	2f	.	[2dd
=84	=84	=84	=84	=84
0r	1r	2d	0r	2dd]
.	.	2e	.	2cc
.	2r	[1f	.	1a
.	[2d	.	.	.
=85	=85	=85	=85	=85
0r	2d]	2f]	2r	2b-
.	2c	4e	1a	1cc
.	.	4d	.	.
.	2A	4e	.	.
.	.	4f	.	.
.	2B-	[2g	2g	2b-
=86	=86	=86	=86	=86
0r	2c	2g]	2e	2.a
.	2d	2f	2f	.
.	.	.	.	4b-
.	2.c	1e	2g	1cc
.	.	.	[2a	.
.	8B-	.	.	.
.	8A	.	.	.
=87	=87	=87	=87	=87
1G	1B-	2.d	2a]	1dd
.	.	.	2g	.
.	.	4e	.	.
2.F	2A	1f	1a	1r
.	2d	.	.	.
4D	.	.	.	.
=88	=88	=88	=88	=88
2E	2c	1r	0r	2r
2F	2A	.	.	2cc
1G	2B-	2r	.	2.b-
.	2G	2g	.	.
.	.	.	.	4g
=89	=89	=89	=89	=89
0r	1d	2.f	2r	2a
.	.	.	2dd	2b-
.	.	4d	.	.
.	1A	2e	2.cc	2cc
.	.	2f	.	2a
.	.	.	4a	.
=90	=90	=90	=90	=90
2r	1r	2g	2b-	2dd
2C	.	2g	2cc	1cc
1G	2r	1g	2dd	.
.	2G	.	2dd	4b-
.	.	.	.	4a
=91	=91	=91	=91	=91
2G	1d	2g	1dd	2b-
2G	.	2g	.	2dd
[1B-	2d	2.f	2b-	[1dd
.	2d	.	2b-	.
.	.	4e	.	.
=92	=92	=92	=92	=92
2B-]	2f	2d	2.b-	2dd]
2B-	2d	2B-	.	2dd
.	.	.	4b-	.
1B-	1d	1f	1b-	1dd
=93	=93	=93	=93	=93
1E-	1B-	0g	1b-	1ee-
1C	1e-	.	1cc	2ee-
.	.	.	.	4dd
.	.	.	.	4cc
=94	=94	=94	=94	=94
2.G	0d	1g	1dd	2b-
.	.	.	.	2.dd
4A	.	.	.	.
1B-	.	1f	1b-	.
.	.	.	.	4cc
.	.	.	.	[2b-
=95	=95	=95	=95	=95
0F	0c	0f	0cc	2b-]
.	.	.	.	4a
.	.	.	.	4g
.	.	.	.	1a
=96	=96	=96	=96	=96
2BB-	1B-	2f	2dd	4d
.	.	.	.	4e
2B-	.	2d	2dd	4f
.	.	.	.	4g
2.A	1r	2e	2.cc	1a
.	.	2f	.	.
4F	.	.	4a	.
=97	=97	=97	=97	=97
2G	1r	2e	2b-	2r
2A	.	2e	2cc	2a
1B-	2r	4d	1dd	2.f
.	.	4e	.	.
.	2d	4f	.	.
.	.	4g	.	4d
=98	=98	=98	=98	=98
1A	2.c	4a	0r	2e
.	.	4g	.	.
.	.	1f	.	2f
.	4A	.	.	.
1r	2B-	.	.	1g
.	2c	2e	.	.
=99	=99	=99	=99	=99
2r	2d	0f	2r	1f
2F	2A	.	2cc	.
2D	2d	.	2b-	1r
2F	2c	.	2a	.
=100	=100	=100	=100	=100
1F	1c	2r	2a	2r
.	.	2f	2a	2cc
1r	1r	2d	2dd	2b-
.	.	2f	2cc	2a
=101	=101	=101	=101	=101
0r	0r	2f	2cc	2a
.	.	4B-	1b-	1dd
.	.	4c	.	.
.	.	4d	.	.
.	.	4e	.	.
.	.	2f	2a	2cc
=102	=102	=102	=102	=102
0r	2r	2B-	2dd	2b-
.	2A	2c	2cc	2a
.	2B-	1d	4b-	4g
.	.	.	4a	4f
.	2d	.	4a	2f
.	.	.	8g	.
.	.	.	8f	.
=103	=103	=103	=103	=103
1r	2c	1r	1g	2f
.	2c	.	.	2e
2r	2F	2r	1a	[1f
2F	2c	2A	.	.
=104	=104	=104	=104	=104
2D	2B-	2d	1r	1f]
2F	2A	2c	.	.
1F	1A	2c	2r	2r
.	.	2f	2cc	2a
=105	=105	=105	=105	=105
2r	2r	2d	2b-	2dd
1F	1A	2f	2a	2cc
.	.	2f	2a	2cc
2BB-	2B-	[2f	2dd	[2b-
=106	=106	=106	=106	=106
1F	1c	2f]	1cc	2b-]
.	.	2f	.	2a
1BB-	2d	[1f	2.b-	2b-
.	[2d	.	.	2f
.	.	.	4a	.
=107	=107	=107	=107	=107
2r	2d]	1f]	4f	2b-
.	.	.	4g	.
2AA	2c	.	2a	2cc
2BB-	2B-	2d	2g	1dd
2D	2F	2B-	[2f	.
=108	=108	=108	=108	=108
1C	0G	0c	2f]	1g
.	.	.	4e	.
.	.	.	4d	.
1C	.	.	1e	1cc
=109	=109	=109	=109	=109
0F	0F	0c	0f	0a
==	==	==	==	==
*-	*-	*-	*-	*-
!!!CDT: 1525/^1526/-1594/2/2
!!!OCY: Italia
!!!AGN: Mass (Parody)
!!!AST: renaissance, vocal
!!!ASW: Madrigal 1550 (Rore)
!!!PWK: Masses, Book 12
!!!RNB: Cadence finals: C
!!!YOR: Le Opere Complete, v. 29, p. 88
!!!YOO: Rome, Italy: Fratelli Scalera
!!!END: 1992//
!!!EED: John Miller
!!!YEC: Copyright 2000, John Miller
!!!YEN: United States of America
!!!YEM: Rights to all derivative electronic formats reserved.
!!!YEM: Refer to licensing agreement for further details.
!!!YEM: This file must be accompanied by the licensing agreement.
!!!YEM: A copy of the licensing agreement may be found at http://www.music-cog.ohio-state.edu/HumdrumDatabases/Palestrina/license.txt
!!!EMD: converted to Humdrum by Bret Aarden
